X:3
T:Polka CGF 5- chords
M:2/4
L:1/16
K:Cmaj%%MIDI gchordon
"C"G2EF G2A2 | G2e2 edc2 | "G7"G2f2 fed2 | "C"G2e2 edc2 | G2EF G2A2 | G2e2 edc2 | "G7"G2f2 fed2 | "C"c2e2 c2z2 :| [K:Gmaj] 
|: "G"d2G2 B2"_ ="G2 | "D7""_#"FG"_a"AB "_c"cd"_e"e2 | d2"_a"A2 "_c"c2"_#"F2 | "G"GABc de"_#"fg | d2G2 B2G2 | "D7"FGAB cde2 | d2A2 c2"_#"F2 | "G"G2G2 G2"_> Teil A"z2 :| [K:Fmaj] 
|: "F"c4 dc=Bc | A4 zAGF | "C7""_e"Ed"_c"c2 "_e"Ed"_c"c2 | =B"_c"cd"_e"e "F"fedc | c4dc=Bc | A4 zAGF | "C7""_e"EF"_g"GA "_b"Bc"_d"d"_ e="e | "F"f2f2 f2z2 :| 

